Simply-Cyan-Circles/scalable/notifications/notification-battery-000-plugged.svg

<svg xmlns="http://www.w3.org/2000/svg" width="48" height="48" viewBox="0 0 12.7 12.7"><g fill="maroon"><path d="M6.39 1.92a4.49 4.49 0 0 0-2.2.57v7.8c1.45 1.02 3.1.7 4.3-.03V2.5a4.83 4.83 0 0 0-2.1-.57zm.38 1.45v2.45h.88L5.9 9.18V6.7h-.86z" opacity=".5"/><path d="M6.33 1.35a5 5 0 0 0-4.98 4.98 5 5 0 0 0 4.98 5.02 5 5 0 0 0 5.02-5.02 5 5 0 0 0-5.02-4.98zm0 .74a4.3 4.3 0 0 1 4.3 4.3 4.3 4.3 0 0 1-4.3 4.3 4.3 4.3 0 0 1-4.3-4.3 4.3 4.3 0 0 1 4.3-4.3z"/></g></svg>

<?xml version="1.0" encoding="UTF-8" standalone="no"?>
<svg
   xmlns:dc="http://purl.org/dc/elements/1.1/"
   xmlns:cc="http://creativecommons.org/ns#"
   xmlns:rdf="http://www.w3.org/1999/02/22-rdf-syntax-ns#"
   xmlns:svg="http://www.w3.org/2000/svg"
   xmlns="http://www.w3.org/2000/svg"
   xmlns:sodipodi="http://sodipodi.sourceforge.net/DTD/sodipodi-0.dtd"
   xmlns:inkscape="http://www.inkscape.org/namespaces/inkscape"
   width="48"
   height="48"
   viewBox="0 0 12.7 12.7"
   version="1.1"
   id="svg8"
   sodipodi:docname="notification-battery-000-plugged.svg"
   inkscape:version="0.92.4 (5da689c313, 2019-01-14)">
  <metadata
     id="metadata14">
    <rdf:RDF>
      <cc:Work
         rdf:about="">
        <dc:format>image/svg+xml</dc:format>
        <dc:type
           rdf:resource="http://purl.org/dc/dcmitype/StillImage" />
        <dc:title></dc:title>
      </cc:Work>
    </rdf:RDF>
  </metadata>
  <defs
     id="defs12" />
  <sodipodi:namedview
     pagecolor="#ffffff"
     bordercolor="#666666"
     borderopacity="1"
     objecttolerance="10"
     gridtolerance="10"
     guidetolerance="10"
     inkscape:pageopacity="0"
     inkscape:pageshadow="2"
     inkscape:window-width="1087"
     inkscape:window-height="480"
     id="namedview10"
     showgrid="false"
     inkscape:zoom="4.9166667"
     inkscape:cx="2.1355932"
     inkscape:cy="24"
     inkscape:window-x="0"
     inkscape:window-y="25"
     inkscape:window-maximized="0"
     inkscape:current-layer="svg8" />
  <g
     id="g6"
     style="fill:#800000">
    <path
       d="m 6.39,1.92 a 4.49,4.49 0 0 0 -2.2,0.57 v 7.8 c 1.45,1.02 3.1,0.7 4.3,-0.03 V 2.5 A 4.83,4.83 0 0 0 6.39,1.93 Z M 6.77,3.37 V 5.82 H 7.65 L 5.9,9.18 V 6.7 H 5.04 Z"
       id="path2"
       inkscape:connector-curvature="0"
       style="opacity:0.5" />
    <path
       d="M 6.33,1.35 A 5,5 0 0 0 1.35,6.33 5,5 0 0 0 6.33,11.35 5,5 0 0 0 11.35,6.33 5,5 0 0 0 6.33,1.35 Z m 0,0.74 a 4.3,4.3 0 0 1 4.3,4.3 4.3,4.3 0 0 1 -4.3,4.3 4.3,4.3 0 0 1 -4.3,-4.3 4.3,4.3 0 0 1 4.3,-4.3 z"
       id="path4"
       inkscape:connector-curvature="0" />
  </g>
</svg>
